static/icons/gplus.svg

<svg xmlns="http://www.w3.org/2000/svg" width="24" height="24" viewBox="0 0 24 24">
  <path fill-rule="evenodd" d="M12.5520833,12.09375 C12.5520833,11.8333333 12.5208333,11.625 12.4895833,11.4270833 L8.71875,11.4270833 L8.71875,12.8020833 L10.9791667,12.8020833 C10.8958333,13.3854167 10.3020833,14.5208333 8.71875,14.5208333 C7.34375,14.5208333 6.22916667,13.3958333 6.22916667,12 C6.22916667,10.6041667 7.34375,9.47916667 8.71875,9.47916667 C9.48958333,9.47916667 10.0104167,9.80208333 10.3125,10.09375 L11.3958333,9.04166667 C10.6979167,8.39583333 9.79166667,8 8.71875,8 C6.5,8 4.71875,9.79166667 4.71875,12 C4.71875,14.2083333 6.5,16 8.71875,16 C11.0208333,16 12.5520833,14.375 12.5520833,12.09375 Z M16.1458333,12.5729167 L17.28125,12.5729167 L17.28125,11.4270833 L16.1458333,11.4270833 L16.1458333,10.28125 L15,10.28125 L15,11.4270833 L13.8541667,11.4270833 L13.8541667,12.5729167 L15,12.5729167 L15,13.71875 L16.1458333,13.71875 L16.1458333,12.5729167 Z M19,7 L19,17 C19,18.65625 17.65625,20 16,20 L6,20 C4.34375,20 3,18.65625 3,17 L3,7 C3,5.34375 4.34375,4 6,4 L16,4 C17.65625,4 19,5.34375 19,7 Z"/>
</svg>

<svg xmlns="http://www.w3.org/2000/svg" width="24" height="24">
    <path fill-rule="evenodd" d="M12.552 12.094c0-.26-.031-.469-.062-.667H8.719v1.375h2.26c-.083.583-.677 1.719-2.26 1.719-1.375 0-2.49-1.125-2.49-2.521s1.115-2.52 2.49-2.52c.77 0 1.291.322 1.594.614l1.083-1.052A3.863 3.863 0 0 0 8.719 8c-2.219 0-4 1.792-4 4s1.781 4 4 4c2.302 0 3.833-1.625 3.833-3.906zm3.594.479h1.135v-1.146h-1.135v-1.146H15v1.146h-1.146v1.146H15v1.146h1.146v-1.146zM19 7v10a3 3 0 0 1-3 3H6a3 3 0 0 1-3-3V7a3 3 0 0 1 3-3h10a3 3 0 0 1 3 3z"/>
</svg>
